raw/symbols/aud.svg

<svg width="42" height="42" viewBox="0 0 42 42" fill="none" xmlns="http://www.w3.org/2000/svg">
<mask id="mask0_3145_261527" style="mask-type:alpha" maskUnits="userSpaceOnUse" x="0" y="0" width="42" height="42">
<circle cx="21" cy="21" r="21" fill="#D9D9D9"/>
</mask>
<g mask="url(#mask0_3145_261527)">
<path d="M67 0H-17V42H67V0Z" fill="#00008B"/>
<g clip-path="url(#clip0_3145_261527)">
<path d="M-16.9995 0L25.0005 21L-16.9995 0ZM25.0005 0L-16.9995 21L25.0005 0Z" fill="black"/>
<path d="M-16.9995 0L25.0005 21M25.0005 0L-16.9995 21" stroke="white" stroke-width="4.2"/>
<path d="M-16.9995 0L25.0005 21L-16.9995 0ZM25.0005 0L-16.9995 21L25.0005 0Z" fill="black"/>
<path d="M-16.9995 0L25.0005 21M25.0005 0L-16.9995 21" stroke="#FF0000" stroke-width="2.8"/>
<path d="M4.00049 0V21V0ZM-16.9995 10.5H25.0005H-16.9995Z" fill="black"/>
<path d="M4.00049 0V21M-16.9995 10.5H25.0005" stroke="white" stroke-width="7"/>
<path d="M4.00049 0V21V0ZM-16.9995 10.5H25.0005H-16.9995Z" fill="black"/>
<path d="M4.00049 0V21M-16.9995 10.5H25.0005" stroke="#FF0000" stroke-width="4.2"/>
</g>
<path d="M3.99947 25.1992L5.21434 28.9765L8.92501 27.5712L6.72927 30.8762L10.1415 32.9011L6.1886 33.245L6.73294 37.1753L3.99947 34.2992L1.266 37.1753L1.81034 33.245L-2.14258 32.9011L1.26967 30.8762L-0.92607 27.5712L2.78459 28.9765L3.99947 25.1992Z" fill="white"/>
<path d="M35.4971 15.376L36.0756 17.1747L37.8425 16.5055L36.797 18.0793L38.4218 19.0435L36.5395 19.2073L36.7987 21.0789L35.4971 19.7093L34.1954 21.0789L34.4546 19.2073L32.5723 19.0435L34.1971 18.0793L33.1516 16.5055L34.9185 17.1747L35.4971 15.376Z" fill="white"/>
</g>
<defs>
<clipPath id="clip0_3145_261527">
<rect width="35.3719" height="21" fill="white" transform="translate(-10.5039)"/>
</clipPath>
</defs>
</svg>

<svg xmlns="http://www.w3.org/2000/svg" width="42" height="42" fill="none"><mask id="a" width="42" height="42" x="0" y="0" maskUnits="userSpaceOnUse" style="mask-type:alpha"><circle cx="21" cy="21" r="21" fill="#D9D9D9"/></mask><g mask="url(#a)"><path fill="#00008B" d="M67 0h-84v42h84V0Z"/><g clip-path="url(#b)"><path fill="#000" d="m-17 0 42 21-42-21Zm42 0-42 21L25 0Z"/><path stroke="#fff" stroke-width="4.2" d="m-17 0 42 21m0-21-42 21"/><path fill="#000" d="m-17 0 42 21-42-21Zm42 0-42 21L25 0Z"/><path stroke="red" stroke-width="2.8" d="m-17 0 42 21m0-21-42 21"/><path fill="#000" d="M4 0v21V0Zm-21 10.5h42-42Z"/><path stroke="#fff" stroke-width="7" d="M4 0v21m-21-10.5h42"/><path fill="#000" d="M4 0v21V0Zm-21 10.5h42-42Z"/><path stroke="red" stroke-width="4.2" d="M4 0v21m-21-10.5h42"/></g><path fill="#fff" d="m4 25.2 1.214 3.777 3.711-1.406-2.196 3.305 3.413 2.025-3.953.344.544 3.93L3.999 34.3l-2.733 2.876.544-3.93-3.953-.344 3.413-2.025-2.196-3.305 3.71 1.405L4 25.2ZM35.497 15.376l.579 1.799 1.767-.67-1.046 1.574 1.625.965-1.883.163.26 1.872-1.302-1.37-1.302 1.37.26-1.872-1.883-.163 1.625-.965-1.045-1.573 1.767.669.578-1.799Z"/></g><defs><clipPath id="b"><path fill="#fff" d="M-10.504 0h35.372v21h-35.372z"/></clipPath></defs></svg>
